main/assets/img/language.svg

<svg height="32.096" viewBox="0 0 32.096 32.096" width="32.096" xmlns="http://www.w3.org/2000/svg"><path d="m0 0h32.1v32.1h-32.1z" fill="none"/><path d="m15.373 2a13.373 13.373 0 1 0 13.373 13.373 13.378 13.378 0 0 0 -13.373-13.373zm-1.337 23.978a10.683 10.683 0 0 1 -9.361-10.6 10.856 10.856 0 0 1 .281-2.394l6.406 6.406v1.337a2.683 2.683 0 0 0 2.674 2.673zm9.228-3.4a2.653 2.653 0 0 0 -2.541-1.859h-1.338v-4.008a1.341 1.341 0 0 0 -1.337-1.337h-8.024v-2.674h2.676a1.341 1.341 0 0 0 1.337-1.337v-2.676h2.675a2.683 2.683 0 0 0 2.675-2.675v-.548a10.675 10.675 0 0 1 3.878 17.118z" transform="translate(.675 .675)"/></svg>

<svg id="ic_public_24px" xmlns="http://www.w3.org/2000/svg" width="32.096" height="32.096" viewBox="0 0 32.096 32.096">
  <path id="Tracciato_2124" data-name="Tracciato 2124" d="M0,0H32.1V32.1H0Z" fill="none"/>
  <path id="Tracciato_2125" data-name="Tracciato 2125" d="M15.373,2A13.373,13.373,0,1,0,28.746,15.373,13.378,13.378,0,0,0,15.373,2ZM14.036,25.978a10.683,10.683,0,0,1-9.361-10.6,10.856,10.856,0,0,1,.281-2.394l6.406,6.406v1.337A2.683,2.683,0,0,0,14.036,23.4Zm9.228-3.4a2.653,2.653,0,0,0-2.541-1.859H19.385V16.711a1.341,1.341,0,0,0-1.337-1.337H10.024V12.7H12.7a1.341,1.341,0,0,0,1.337-1.337V8.687h2.675a2.683,2.683,0,0,0,2.675-2.675V5.464a10.675,10.675,0,0,1,3.878,17.118Z" transform="translate(0.675 0.675)"/>
</svg>
